packages/icons/assets/Like.svg

<svg xmlns="http://www.w3.org/2000/svg" viewBox="0 0 16 16"><path fill="#414141" d="M13.69343 5.0065h-3.663l-.049-2.372c0-2.408-2.588-2.641-3.591-2.641-.241 0-.391.013-.391.013v3.755a3.128 3.128 0 0 1-2 2.912v-.667h-4v10h4v-.373a5.48109 5.48109 0 0 0 1.976.373h5.8c3 0 3.254-2.227 3.254-2.227l.97-6.215a2.49 2.49 0 0 0-2.306-2.558zm-10.694 10h-2v-8h2zm11.039-1.381v.031a1.549 1.549 0 0 1-.345.676 2.43 2.43 0 0 1-1.921.674h-5.8a4.97388 4.97388 0 0 1-1.3-.184 1.56 1.56 0 0 1-.573-.285.268.268 0 0 1-.1-.231v-6.55a5.5399 5.5399 0 0 0 1.032-.5 3.963 3.963 0 0 0 1.968-3.495v-2.736a3.70009 3.70009 0 0 1 1.141.292 1.3 1.3 0 0 1 .841 1.317v.02l.05 2.373.02.979h4.587a1.96111 1.96111 0 0 1 .744.27 1.357 1.357 0 0 1 .617 1.217z"/></svg>

<svg xmlns="http://www.w3.org/2000/svg" viewBox="0 0 16 16"><path fill="#414141" d="M13.7 5h-3.67l-.05-2.37C9.98.23 7.4 0 6.4 0c-.24 0-.4.02-.4.02v3.75a3.13 3.13 0 0 1-2 2.91v-.66H0v10h4v-.38a5.48 5.48 0 0 0 1.99.38h5.8c3 0 3.25-2.23 3.25-2.23L16 7.56a2.49 2.49 0 0 0-2.3-2.55zM3 15H1V7h2zm11.04-1.37v.03a1.55 1.55 0 0 1-.35.67 2.43 2.43 0 0 1-1.92.68h-5.8a4.97 4.97 0 0 1-1.3-.19 1.56 1.56 0 0 1-.57-.28.27.27 0 0 1-.1-.23V7.76a5.54 5.54 0 0 0 1.03-.5A3.96 3.96 0 0 0 7 3.76V1.03a3.7 3.7 0 0 1 1.14.29 1.3 1.3 0 0 1 .84 1.31v.02l.05 2.38.02.98h4.59a1.96 1.96 0 0 1 .74.27A1.36 1.36 0 0 1 15 7.49z"/></svg>
